img/icons/services/dog_boarding_24x.svg

<svg width="63" height="63" viewBox="0 0 63 63" fill="none" xmlns="http://www.w3.org/2000/svg">
<g clip-path="url(#clip0)">
<path d="M0 47.5168V61.3982H4.27119V59.2626C4.27119 56.9039 6.18363 54.9914 8.54237 54.9914H42.7119C45.0706 54.9914 46.983 56.9039 46.983 59.2626V61.3982H51.2542V47.5168H0Z" fill="#D9C2A0"/>
<path d="M46.9832 18.6864C45.2141 18.6864 43.7798 17.2521 43.7798 15.483L44.8476 13.3474H49.1188L50.1866 15.483C50.1866 17.2521 48.7522 18.6864 46.9832 18.6864Z" fill="#F7BA61"/>
<path d="M40.5762 15.4832L44.8474 10.1442L45.9152 9.07642H48.0507L49.1185 10.1442L53.3897 15.4832H40.5762Z" fill="#E4E4E2"/>
<path d="M58.7286 62.4661C58.1389 62.4661 57.6608 61.988 57.6608 61.3983V5.87292C57.6608 4.10386 56.2265 2.66953 54.4574 2.66953H51.254C49.485 2.66953 48.0506 4.10386 48.0506 5.87292C48.0506 6.46261 47.5725 6.94072 46.9828 6.94072C46.3931 6.94072 45.915 6.46261 45.915 5.87292C45.9187 2.92553 48.3066 0.537585 51.254 0.533936H54.4574C57.4048 0.537585 59.7927 2.92553 59.7964 5.87292V61.3983C59.7964 61.988 59.3183 62.4661 58.7286 62.4661Z" fill="#C3C3C3"/>
<path d="M6.40644 22.9575H44.8471C47.2059 22.9575 49.1183 24.87 49.1183 27.2287V37.9067H2.13525V27.2287C2.13525 24.87 4.04769 22.9575 6.40644 22.9575Z" fill="#D9C2A0"/>
<path d="M2.13525 35.771H49.1183V38.9744H2.13525V35.771Z" fill="#C1AC8E"/>
<path d="M51.2542 48.5847H0V40.0423C0 38.863 0.95622 37.9067 2.13559 37.9067H49.1186C50.298 37.9067 51.2542 38.863 51.2542 40.0423V48.5847Z" fill="#5D62B5"/>
<path d="M10.6779 29.3643H19.2203C21.579 29.3643 23.4915 31.2767 23.4915 33.6354C23.4915 35.9942 21.579 37.9066 19.2203 37.9066H10.6779C8.31918 37.9066 6.40674 35.9942 6.40674 33.6354C6.40674 31.2767 8.31918 29.3643 10.6779 29.3643Z" fill="#50559F"/>
<path d="M32.0339 29.3643H40.5763C42.935 29.3643 44.8474 31.2767 44.8474 33.6354C44.8474 35.9942 42.935 37.9066 40.5763 37.9066H32.0339C29.6751 37.9066 27.7627 35.9942 27.7627 33.6354C27.7627 31.2767 29.6751 29.3643 32.0339 29.3643Z" fill="#50559F"/>
<path d="M44.8477 5.8728H49.1188V10.144H44.8477V5.8728Z" fill="#DBDBDB"/>
<path d="M61.9326 62.4662H55.5258C54.9361 62.4662 54.458 61.988 54.458 61.3984C54.458 60.8087 54.9361 60.3306 55.5258 60.3306H61.9326C62.5223 60.3306 63.0004 60.8087 63.0004 61.3984C63.0004 61.988 62.5223 62.4662 61.9326 62.4662Z" fill="#B9B9B9"/>
<path d="M19.2203 29.3643H10.6779C8.31918 29.3643 6.40674 31.2767 6.40674 33.6354H23.4915C23.4915 31.2767 21.579 29.3643 19.2203 29.3643Z" fill="#5D62B5"/>
<path d="M40.5763 29.3643H32.0339C29.6751 29.3643 27.7627 31.2767 27.7627 33.6354H44.8474C44.8474 31.2767 42.935 29.3643 40.5763 29.3643Z" fill="#5D62B5"/>
</g>
<defs>
<clipPath id="clip0">
<rect width="63" height="63" fill="white"/>
</clipPath>
</defs>
</svg>

<svg width="63" height="63" fill="none" xmlns="http://www.w3.org/2000/svg">
  <g clip-path="url(#clip0)">
    <path d="M0 47.517v13.881h4.271v-2.135a4.271 4.271 0 014.271-4.272h34.17a4.271 4.271 0 014.271 4.272v2.135h4.271V47.517H0z" fill="#D9C2A0"/>
    <path d="M46.983 18.686a3.204 3.204 0 01-3.203-3.203l1.068-2.136h4.27l1.069 2.136a3.204 3.204 0 01-3.204 3.203z" fill="#F7BA61"/>
    <path d="M40.576 15.483l4.271-5.339 1.068-1.068h2.136l1.067 1.068 4.272 5.34H40.576z" fill="#E4E4E2"/>
    <path d="M58.729 62.466c-.59 0-1.068-.478-1.068-1.068V5.873a3.204 3.204 0 00-3.204-3.203h-3.203a3.204 3.204 0 00-3.203 3.203 1.068 1.068 0 01-2.136 0 5.345 5.345 0 015.339-5.34h3.203a5.345 5.345 0 015.34 5.34v55.525c0 .59-.479 1.068-1.068 1.068z" fill="#C3C3C3"/>
    <path d="M6.406 22.957h38.441a4.271 4.271 0 014.271 4.272v10.678H2.135V27.229a4.271 4.271 0 014.271-4.271z" fill="#D9C2A0"/>
    <path d="M2.135 35.771h46.983v3.203H2.135v-3.203z" fill="#C1AC8E"/>
    <path d="M51.254 48.585H0v-8.543c0-1.179.956-2.135 2.136-2.135h46.983c1.179 0 2.135.956 2.135 2.135v8.543z" fill="#5D62B5"/>
    <path d="M10.678 29.364h8.542a4.271 4.271 0 010 8.543h-8.542a4.271 4.271 0 010-8.543zM32.034 29.364h8.542a4.271 4.271 0 010 8.543h-8.542a4.271 4.271 0 010-8.543z" fill="#50559F"/>
    <path d="M44.848 5.873h4.27v4.271h-4.27V5.873z" fill="#DBDBDB"/>
    <path d="M61.933 62.466h-6.407a1.068 1.068 0 010-2.135h6.407a1.068 1.068 0 010 2.135z" fill="#B9B9B9"/>
    <path d="M19.22 29.364h-8.542a4.271 4.271 0 00-4.271 4.271H23.49a4.271 4.271 0 00-4.27-4.27zM40.576 29.364h-8.542a4.271 4.271 0 00-4.271 4.271h17.084a4.271 4.271 0 00-4.27-4.27z" fill="#5D62B5"/>
  </g>
  <defs>
    <clipPath id="clip0">
      <path fill="#fff" d="M0 0h63v63H0z"/>
    </clipPath>
  </defs>
</svg>
